X:1
T: Miss Daly's Reel
C:
R:Reel
Q: 232
K:G
M:4/4
L:1/8
g((3B/c/B/) AB gB aB|g((3B/c/B/) AB dB AB|g((3B/c/B/) AB gB aB|eg fe de fa|
g((3B/c/B/) AB gB aB|g((3B/c/B/) AB dB AB|g((3B/c/B/) AB gB aB|eg fe de fg|
|:a2 fd Ad fd|ed fd ed fd|a2 fd Ad fd|eg fe de fg|
a2 fd Ad fd|ed fd ed fd|af ge fd e^c|1d^c d^d e^e fg:|2d^c d^d e^e fa|
g((3B/c/B/) AB gB aB|g((3B/c/B/) AB dB AB|g((3B/c/B/) AB gB aB|eg fe de fa|
g((3B/c/B/) AB gB aB|g((3B/c/B/) AB dB AB|g((3B/c/B/) AB gB aB|eg fe de fg||
